X:1
T:The bear
M:2/4
L:1/16
Q:Schottische
C:Dougie McCallum
S:Dougie McCallum <mccallum.rupert:which.net> tradtunes 2002-1-25
R:h
K:GMajor
|:B4B4|c1d3B1G3|A3c1f3e1|d8|B4B4|c1d3B1G3(3A2c2A2 F2A2|G8:|
!B4c4|^c4d4|g1g3f2e2|d8|B4c4|^c4d4|e1e3d1B3|A8|!
B4c4|^c4d4|g1g3f2e2|d8|G4A4|B4d1B3|(3A2c2A2 F2A2|G8:|
